svg/Pictogram/pictograms-nps-misc-dam.svg

<svg xmlns="http://www.w3.org/2000/svg" viewBox="0 0 256 256" xmlns:xlink="http://www.w3.org/1999/xlink"><defs><path id="0" d="m0 0h-2.793l.002.547h2.791v-.547" fill="#fff"/></defs><path d="m0 0c-.541 0-.981-.44-.981-.981v-7.522c0-.54.44-.979.981-.979h7.521c.542 0 .982.439.982.979v7.522c0 .541-.44.981-.982.981h-7.521" fill="#fff" transform="matrix(25.89783 0 0-25.89783 30.598 5.242)"/><path d="m0 0c.652 0 1.182.527 1.182 1.18v7.521c0 .653-.53 1.182-1.182 1.182h-7.521c-.653 0-1.182-.529-1.182-1.182v-7.521c0-.653.529-1.18 1.182-1.18h7.521" transform="matrix(25.89783 0 0-25.89783 225.39 256)"/><use transform="matrix(25.89783 0 0-25.89783 99.09 202.43)" xlink:href="#0"/><use transform="matrix(25.89783 0 0-25.89783 99.09 180.99)" xlink:href="#0"/><use transform="matrix(25.89783 0 0-25.89783 99.09 159.49)" xlink:href="#0"/><use transform="matrix(25.89783 0 0-25.89783 99.09 137.99)" xlink:href="#0"/><g fill="#fff"><path d="m0 0c-.051.121-.172.207-.311.207l-.449-.002v-6.02h2.127l-1.367 5.816" transform="matrix(25.89783 0 0-25.89783 128.37 51.801)"/><path d="m0 0h-2.793l.002.545h2.791v-.545" transform="matrix(25.89783 0 0-25.89783 99.09 116.5)"/></g><use transform="matrix(25.89783 0 0-25.89783 99.09 95.05)" xlink:href="#0"/><use transform="matrix(25.89783 0 0-25.89783 99.09 73.55)" xlink:href="#0"/><g fill="#fff"><path d="m0 0c.041-.008.082-.012.123-.012.109 0 .213.026.305.067.095.045.201.07.314.07.112 0 .217-.025.313-.07.091-.041.197-.067.304-.067.108 0 .211.026.305.067.094.045.201.07.313.07.111 0 .218-.025.314-.07.092-.041.195-.067.305-.067v-.455c-.11 0-.213.024-.305.065-.096.045-.203.07-.314.07-.112 0-.219-.025-.313-.07-.094-.041-.197-.065-.305-.065-.107 0-.213.024-.304.065-.096.045-.201.07-.313.07-.113 0-.219-.025-.314-.07-.092-.041-.196-.065-.305-.065h-.018l-.105.467" transform="matrix(25.89783 0 0-25.89783 170.51 190.09)"/><path d="m0 0c.094-.041.197-.066.305-.066.109 0 .213.025.304.066.096.045.202.07.315.07.111 0 .217-.025.312-.07.092-.041.198-.066.305-.066.107 0 .211.025.305.066.093.045.201.07.312.07.112 0 .219-.025.315-.07.091-.041.195-.066.304-.066v-.455c-.109 0-.213.023-.304.064-.096.045-.203.07-.315.07-.111 0-.219-.025-.312-.07-.094-.041-.198-.064-.305-.064-.107 0-.213.023-.305.064-.095.045-.201.07-.312.07-.113 0-.219-.025-.315-.07-.091-.041-.195-.064-.304-.064-.067 0-.131.007-.194.025l-.111.496" transform="matrix(25.89783 0 0-25.89783 165.8 166.98)"/></g></svg>

<?xml version="1.0" encoding="UTF-8" standalone="no"?>
<!-- Created with Inkscape (http://www.inkscape.org/) -->
<svg
   xmlns:dc="http://purl.org/dc/elements/1.1/"
   xmlns:cc="http://creativecommons.org/ns#"
   xmlns:rdf="http://www.w3.org/1999/02/22-rdf-syntax-ns#"
   xmlns:svg="http://www.w3.org/2000/svg"
   xmlns="http://www.w3.org/2000/svg"
   xmlns:sodipodi="http://sodipodi.sourceforge.net/DTD/sodipodi-0.dtd"
   xmlns:inkscape="http://www.inkscape.org/namespaces/inkscape"
   width="256"
   height="256"
   id="svg5294"
   sodipodi:version="0.32"
   inkscape:version="0.46"
   version="1.0"
   sodipodi:docname="pictograms-nps-misc-dam-2.svg"
   inkscape:output_extension="org.inkscape.output.svg.inkscape">
  <defs
     id="defs5296">
    <inkscape:perspective
       sodipodi:type="inkscape:persp3d"
       inkscape:vp_x="0 : 526.18109 : 1"
       inkscape:vp_y="0 : 1000 : 0"
       inkscape:vp_z="744.09448 : 526.18109 : 1"
       inkscape:persp3d-origin="372.04724 : 350.78739 : 1"
       id="perspective5302" />
  </defs>
  <sodipodi:namedview
     id="base"
     pagecolor="#ffffff"
     bordercolor="#666666"
     borderopacity="1.0"
     gridtolerance="10000"
     guidetolerance="10"
     objecttolerance="10"
     inkscape:pageopacity="0.0"
     inkscape:pageshadow="2"
     inkscape:zoom="0.98994949"
     inkscape:cx="112.80911"
     inkscape:cy="62.857143"
     inkscape:document-units="px"
     inkscape:current-layer="layer1"
     showgrid="false"
     inkscape:window-width="725"
     inkscape:window-height="674"
     inkscape:window-x="1"
     inkscape:window-y="309" />
  <metadata
     id="metadata5299">
    <rdf:RDF>
      <cc:Work
         rdf:about="">
        <dc:format>image/svg+xml</dc:format>
        <dc:type
           rdf:resource="http://purl.org/dc/dcmitype/StillImage" />
      </cc:Work>
    </rdf:RDF>
  </metadata>
  <g
     inkscape:label="Layer 1"
     inkscape:groupmode="layer"
     id="layer1">
    <g
       id="g5812"
       transform="matrix(25.897825,0,0,-25.897825,30.598322,5.2417198)">
      <path
         d="M 0,0 C -0.541,0 -0.981,-0.44 -0.981,-0.981 L -0.981,-8.503 C -0.981,-9.043 -0.541,-9.482 0,-9.482 L 7.521,-9.482 C 8.063,-9.482 8.503,-9.043 8.503,-8.503 L 8.503,-0.981 C 8.503,-0.44 8.063,0 7.521,0 L 0,0 z"
         style="fill:#ffffff;fill-opacity:1;fill-rule:nonzero;stroke:none"
         id="path5814" />
    </g>
    <g
       id="g5816"
       transform="matrix(25.897825,0,0,-25.897825,225.38877,256)">
      <path
         d="M 0,0 C 0.652,0 1.182,0.527 1.182,1.18 L 1.182,8.701 C 1.182,9.354 0.652,9.883 0,9.883 L -7.521,9.883 C -8.174,9.883 -8.703,9.354 -8.703,8.701 L -8.703,1.18 C -8.703,0.527 -8.174,0 -7.521,0 L 0,0 z"
         style="fill:#000000;fill-opacity:1;fill-rule:nonzero;stroke:none"
         id="path5818" />
    </g>
    <g
       id="g5820"
       transform="matrix(25.897825,0,0,-25.897825,99.08512,202.43335)">
      <path
         d="M 0,0 L -2.793,0 L -2.791,0.547 L 0,0.547 L 0,0 z"
         style="fill:#ffffff;fill-opacity:1;fill-rule:nonzero;stroke:none"
         id="path5822" />
    </g>
    <g
       id="g5824"
       transform="matrix(25.897825,0,0,-25.897825,99.08512,180.98726)">
      <path
         d="M 0,0 L -2.793,0 L -2.791,0.547 L 0,0.547 L 0,0 z"
         style="fill:#ffffff;fill-opacity:1;fill-rule:nonzero;stroke:none"
         id="path5826" />
    </g>
    <g
       id="g5828"
       transform="matrix(25.897825,0,0,-25.897825,99.08512,159.48937)">
      <path
         d="M 0,0 L -2.793,0 L -2.791,0.547 L 0,0.547 L 0,0 z"
         style="fill:#ffffff;fill-opacity:1;fill-rule:nonzero;stroke:none"
         id="path5830" />
    </g>
    <g
       id="g5832"
       transform="matrix(25.897825,0,0,-25.897825,99.08512,137.99128)">
      <path
         d="M 0,0 L -2.793,0 L -2.791,0.547 L 0,0.547 L 0,0 z"
         style="fill:#ffffff;fill-opacity:1;fill-rule:nonzero;stroke:none"
         id="path5834" />
    </g>
    <g
       id="g5836"
       transform="matrix(25.897825,0,0,-25.897825,128.3727,51.801037)">
      <path
         d="M 0,0 C -0.051,0.121 -0.172,0.207 -0.311,0.207 L -0.76,0.205 L -0.76,-5.816 L 1.367,-5.816 L 0,0 z"
         style="fill:#ffffff;fill-opacity:1;fill-rule:nonzero;stroke:none"
         id="path5838" />
    </g>
    <g
       id="g5840"
       transform="matrix(25.897825,0,0,-25.897825,99.08512,116.4967)">
      <path
         d="M 0,0 L -2.793,0 L -2.791,0.545 L 0,0.545 L 0,0 z"
         style="fill:#ffffff;fill-opacity:1;fill-rule:nonzero;stroke:none"
         id="path5842" />
    </g>
    <g
       id="g5844"
       transform="matrix(25.897825,0,0,-25.897825,99.08512,95.048125)">
      <path
         d="M 0,0 L -2.793,0 L -2.791,0.547 L 0,0.547 L 0,0 z"
         style="fill:#ffffff;fill-opacity:1;fill-rule:nonzero;stroke:none"
         id="path5846" />
    </g>
    <g
       id="g5848"
       transform="matrix(25.897825,0,0,-25.897825,99.08512,73.552516)">
      <path
         d="M 0,0 L -2.793,0 L -2.791,0.547 L 0,0.547 L 0,0 z"
         style="fill:#ffffff;fill-opacity:1;fill-rule:nonzero;stroke:none"
         id="path5850" />
    </g>
    <g
       id="g5852"
       transform="matrix(25.897825,0,0,-25.897825,170.50883,190.09273)">
      <path
         d="M 0,0 C 0.041,-0.008 0.082,-0.012 0.123,-0.012 C 0.232,-0.012 0.336,0.014 0.428,0.055 C 0.523,0.1 0.629,0.125 0.742,0.125 C 0.854,0.125 0.959,0.1 1.055,0.055 C 1.146,0.014 1.252,-0.012 1.359,-0.012 C 1.467,-0.012 1.57,0.014 1.664,0.055 C 1.758,0.1 1.865,0.125 1.977,0.125 C 2.088,0.125 2.195,0.1 2.291,0.055 C 2.383,0.014 2.486,-0.012 2.596,-0.012 L 2.596,-0.467 C 2.486,-0.467 2.383,-0.443 2.291,-0.402 C 2.195,-0.357 2.088,-0.332 1.977,-0.332 C 1.865,-0.332 1.758,-0.357 1.664,-0.402 C 1.57,-0.443 1.467,-0.467 1.359,-0.467 C 1.252,-0.467 1.146,-0.443 1.055,-0.402 C 0.959,-0.357 0.854,-0.332 0.742,-0.332 C 0.629,-0.332 0.523,-0.357 0.428,-0.402 C 0.336,-0.443 0.232,-0.467 0.123,-0.467 L 0.105,-0.467 L 0,0 z"
         style="fill:#ffffff;fill-opacity:1;fill-rule:nonzero;stroke:none"
         id="path5854" />
    </g>
    <g
       id="g5856"
       transform="matrix(25.897825,0,0,-25.897825,165.80318,166.97612)">
      <path
         d="M 0,0 C 0.094,-0.041 0.197,-0.066 0.305,-0.066 C 0.414,-0.066 0.518,-0.041 0.609,0 C 0.705,0.045 0.811,0.07 0.924,0.07 C 1.035,0.07 1.141,0.045 1.236,0 C 1.328,-0.041 1.434,-0.066 1.541,-0.066 C 1.648,-0.066 1.752,-0.041 1.846,0 C 1.939,0.045 2.047,0.07 2.158,0.07 C 2.27,0.07 2.377,0.045 2.473,0 C 2.564,-0.041 2.668,-0.066 2.777,-0.066 L 2.777,-0.521 C 2.668,-0.521 2.564,-0.498 2.473,-0.457 C 2.377,-0.412 2.27,-0.387 2.158,-0.387 C 2.047,-0.387 1.939,-0.412 1.846,-0.457 C 1.752,-0.498 1.648,-0.521 1.541,-0.521 C 1.434,-0.521 1.328,-0.498 1.236,-0.457 C 1.141,-0.412 1.035,-0.387 0.924,-0.387 C 0.811,-0.387 0.705,-0.412 0.609,-0.457 C 0.518,-0.498 0.414,-0.521 0.305,-0.521 C 0.238,-0.521 0.174,-0.514 0.111,-0.496 L 0,0 z"
         style="fill:#ffffff;fill-opacity:1;fill-rule:nonzero;stroke:none"
         id="path5858" />
    </g>
  </g>
</svg>
